X:26001
T:Zodiac, The
R:Waltz
C:Trad.
O:England; Lincolnshire
Z:Paul Hardy's Session Tunebook 2022 (see www.paulhardy.net). Creative Commons cc by-nc-sa licenced.
M:3/4
L:1/8
Q:1/4=180
K:G
D2|"G"G3 A G2|D2 G2 B2|"D"c2 A2 F2|"G"GF GA G2|G3 A G2|D2 G2 B2|"D"c2 A2 F2|"G"G4:|
|:FG|"D"A2 F2 D2|"G"B2 G2 E2|"D"c2 A2 F2|"G"d2 B2 G2|"D"A2 F2 D2|"G"B2 G2 E2|"D"c2 A2 F2|"G"G4:|
|:g2|"C"g2 f2 e2|"G"d2 B2 B2|"D"c2 A2 A2|"G"B2 G2 G2|"C"g2 f2 e2|"G"d2 B2 B2|"D"c2 A2 F2|"G"G4:|
|:D2|"G"d2 B2 e2|"C"c4 A2|"D"F2 A2 d2|"G"B4 G2|"G"d2 B2 e2|"C"c4 A2|"D"F2 c2 A2|"G"G4:|


